!!!COM: Bach, Johann Sebastian
!!!OPR: Joh. Seb. Bachs vierstimmige Choralgesänge
!!!XEN: Four-part Chorales
!!!OTL: 124. Mach's mit mir, Gott, nach deiner gut'
!!!SCT: BWV 377
!!!SCA: Thematisch-systematisches Verzeichnis der musikalischen Werke Johann Sebastian Bach: Bach-Werke-Verzeichnis (Schmieder)
!!!YOR: Bach Gesellschaft Edition xxxix
!!!ENC: Steven Rasmussen
!!!CDT: 1685/3//-1750/7/28/
!!!OCY: Deutschland
!!!YEC: Copyright (c) 1994, 2000 Center for Computer Assisted Research in the Humanities
!!!YEM: Rights to all derivative editions reserved
!!!YEN: United States of America
**kern	**kern	**kern	**kern	**silbe
*I:[BASSO]	*I:[TENORE]	*I:[ALTO]	*I:[SOPRANO]	*I:[SOPRANO]
*>[A,A,B]	*>[A,A,B]	*>[A,A,B]	*>[A,A,B]	*
*>A	*>A	*>A	*>A	*
*clefF4	*clefGv2	*clefG2	*clefG2	*
*k[f#c#]	*k[f#c#]	*k[f#c#]	*k[f#c#]	*
*D:	*D:	*D:	*D:	*
*M4/4	*M4/4	*M4/4	*M4/4	*
4D	8F#L	4A	8dL	Mach'swas
.	8GJ	.	8eJ	.
=1	=1	=1	=1	=1
8DL	4A	4d	4f#	mitich
8C#J	.	.	.	.
4BB	8GL	4d	4g	mir,dich
.	8F#J	.	.	.
4C#	4E	4e	4a	Gott,bitt',
4D	4F#	8dL	4a	nachver-
.	.	8c#J	.	.
=2	=2	=2	=2	=2
4E	4G	8BL	4g	dei--sag'
.	.	8c#J	.	.
8F#L	4A	4d	4f#	-nermir
8GJ	.	.	.	.
4A;	4A;	4c#;	4e;	GÃ¼t',nicht,
4c#	4A	4e	4a	hilfwenn
=3	=3	=3	=3	=3
4B	4d	8f#L	4b	mirmei-
.	.	8g#J	.	.
4A	4e	4a	4cc#	in-ne
4G#	4e	4b	4dd	mei-Seel'
4A	4e	4a	4cc#	-nemwill
=4	=4	=4	=4	=4
4D	4f#	4a	2b	Lei-schei-
4E	8eL	4g#	.	.
.	8dJ	.	.	.
4AA;	4c#;	4e;	4a;	-den,-den;
=:|!	=:|!	=:|!	=:|!	=:|!
*>B	*>B	*>B	*>B	*
8AL	8c#L	4e	4a	so
8GJ	8BJ	.	.	.
=5	=5	=5	=5	=5
8F#L	8AL	4f#	4dd	nimm
8DJ	8F#J	.	.	.
8EL	8GL	4e	4cc#	sie,
8F#J	8AJ	.	.	.
8GL	4B	8dL	4b	Herr,
8F#J	.	8eJ	.	.
8EL	4B	4f#	4a	in
8D#J	.	.	.	.
=6	=6	=6	=6	=6
4E	8BL	4e	4g	dei-
.	8c#J	.	.	.
8F#L	4d	8AL	4f#	-ne
8G#J	.	8BJ	.	.
4A;	4A;	4c#;	4e;	HÃ¤nd',
4F#	4c#	8f#L	4a	ist
.	.	8eJ	.	.
=7	=7	=7	=7	=7
8BBL	8BL	(8d	4g	Al-
8C#J	8AJ	4e)	.	.
4D	4A	.	4f#	-les
.	.	8d	.	.
4AA	4A	8dL	8eL	gut,
.	.	8c#J	8f#J	.
4BB	4G	4d	4g	wenn
=8	=8	=8	=8	=8
8AAL	4.A	4d	4f#	gut
8GGJ	.	.	.	.
4AA	.	4c#	4e	das
.	8G	.	.	.
4DD;	4F#;	4A;	4d;	End'.
==|!	==|!	==|!	==|!	==|!
*-	*-	*-	*-	*-
!!!RWG: Key is interpreted using the Humdrum key tool.
!!!URL-pdf: https://s9.imslp.org/files/imglnks/usimg/6/6b/IMSLP24489-PMLP09471-CCARH_Bach_Chorales.pdf#page=88 Musedata edition
!!!URL-pdf: https://s9.imslp.org/files/imglnks/usimg/7/7a/IMSLP04155-Bach_-_BGA_253-438.pdf#page=68 	Bach-Gesellschaft Ausgabe, Band 39 (pp.175-276) Leipzig: Breitkopf und Härtel, 1892. Plate B.W. XXXIX.
!!!END: 1994/07/18
!!!EMD: Converted from MuseData to Humdrum Dec 19, 2000, by Andreas Kornstaedt using muse2kern.
!!!EED: Craig Stuart Sapp
!!!EEV: 2024/03/31
!!!ONB: Some non-unicode characters
!!!filter-keyboard: satb2gs
